teeny/solid/arrow-left-small.svg

<svg width="15" height="15" viewBox="0 0 15 15" fill="none" xmlns="http://www.w3.org/2000/svg">
<path fill-rule="evenodd" clip-rule="evenodd" d="M7.20711 5.50001L5.70711 7.00001H11V8.00001H5.70711L7.20711 9.50001L6.5 10.2071L3.79289 7.50001L6.5 4.79291L7.20711 5.50001Z" fill="black"/>
</svg>

<svg viewBox="0 0 15 15" xmlns="http://www.w3.org/2000/svg"><path fill-rule="evenodd" d="M7.2 5.5L5.7 7h5.29v1h-5.3l1.5 1.5 -.71.7 -2.71-2.71 2.7-2.71 .7.7Z"/></svg>
